X:1
T:Erfrorene Blumen
T:Friedrich Silcher
T:Altes Volkslied
T:Erfrorene Blumen
T:Ach Gott, wie weh tut Scheiden
T:CPDL - Creative Commons Attribution Non Commercial 3.0
C:Friedrich Silcher
Z:CPDL - Creative Commons Attribution Non Commercial 3.0
%%score [ ( 1 2 ) ( 3 4 ) ]
L:1/8
Q:1/4=80
M:6/8
K:C
V:1 treble-8 nm="T"
V:2 treble-8 
V:3 bass nm="B"
V:4 bass 
V:1
"^Andante"!<(! c | d2!<)! c!>(! B2 A!>)! | A3 G2 G |!<(! c2 c!<)!{/e} dcd | e3- e z | c | %6
w: 1.~Ach|Gott, wie weh tut|Schei- den, hat|mir mein Herz _ ver-|wund't, _|so|
w: 2.~Hatt'|mir ein Gärt- lein|er- kor'n von|Veil und grü- * nem|Klee, _|ist|
w: 3.~Das|Blüm- lein, das ich|mei- ne, das|ist von ed- * ler|Art, _|ist|
w: 4.~Mich|dünkt in all' mein|Sin- ne und|wenn ich bei _ ihr|bin, _|sie|
 d2 c B-BA | A3 G2 G | c-cc (dc)d | e3- e z |!<(! e | g2!<)! g g2 e |!>(! e2 d!>)! d2!p! d | %13
w: trab' ich ü- ber die|Hei- den und|trau'r _ zu al- * ler|Stund'; _|der|Stun- den, der sind|all- zu- viel, mein|
w: mir zu früh _ er|fro- ren, tut|mei- * nem Her- * zen|weh; _|ist|mir er- fror'n bei|Son- nen- schein ein|
w: al- ler Tu- * gend|rei- ne, ihr|Münd- * lein, das _ ist|zart, _|ihr'|Äug- lein, die sind|hübsch und fein wenn|
w: sei ein' Kai- * ser-|in- ne, kein'|lie- ber ich nim- mer ge-|winn; _|hat|mir mein jun- ges|Herz er- freut, wenn|
 f2 f (ag)f |!>(! f3!>)! e2!mf! e | fed =c2 B | c3- c z |] %17
w: Herz trägt heim- * lich|Lei- den, wie-|wohl ich oft fröh- lich|bin. _|
w: Kraut: Je- län- ger- je-|lie- ber, ein|Blüm- lein Ver- giss- nicht-|mein. _|
w: ich an sie _ ge-|den- ke, so|wollt' ich gern bei ihr|sein! _|
w: ich an sie _ ge-|den- ke, ver-|schwun- den ist all mein|Leid. _|
V:2
 G | A2 G F2 F | F3 F2 G | G2 G BAB | c3- c x | G | A2 G F-FF | F3 F2 G | G-GG (BA)B | c3- c x | %10
 c | c2 d c2 c | c2 B B2 B | d2 d (fe)d | d3 c2 c | A^cd G2 G | G3- G x |] %17
V:3
!<(! E, | F,2!<)! E,!>(! D,2 C,!>)! | D,3 D,2 F, |!<(! E,2 E,!<)! G,2 G, | G,3- G, z | E, | %6
 F,2 E, D,-D,C, | D,3 D,2 F, | E,-E,E, G,-G,G, | G,3- G, z |!<(! G, | G,2!<)! B, C2 G, | %12
!>(! G,2 G,!>)! G,2!p! G, | B,2 B, B,-B,B, |!>(! B,3!>)! C2!mf! A, | F,G,A, E,2 D, | E,3- E, z |] %17
V:4
 C, | C,2 C, C,2 C, | B,,3 B,,2 F, | E,2 C, G,,2 G,, | C,3- C, x | C, | C,2 C, C,-C,C, | %7
 B,,3 B,,2 F, | E,-E,C, G,,-G,,G,, | C,3- C, x | C, | E,2 F, E,2 C, | G,2 G, G,2 G, | %13
 G,2 G, G,-G,G, | ^G,3 A,2 A, | D,E,F, G,,2 G,, | C,3- C, x |] %17

